!!!OTL: Zhiyuan qianfang da shengzhang
!!!ARE: Asia, China,ÿLiaoning Gaixian
!! III, 232
!!!SCT: C1739
!!!YEM: Copyright 1995, estate of Helmut Schaffrath.
**kern
*ICvox
*Ivox
*M2/4
*k[f#]
*G:
{8dd
16dd
16b
8a
16a
16g
=1
8e
16e
16g
4d}
=2
{8dd
16dd
16b
8a
16a
16g
=3
8e
16e
16g
4d}
=4
{8dd
16dd
16b
8a
16a
16g
=5
8e
16e
16g
4d}
=6
{8dd
8b
8a
16a
16g
=7
8e
16e
16g
4d}
=8
{8.g
16g
8e
8b
=9
2a}
=10
{8.a
16b
4dd
=11
8dd
8e
4g}
=12
{8.g
16a
8dd
8b
=13
8.a
16g
8e
8g
=14
2d}
=15
{8.a
16b
4dd
=16
8.dd
16e
4g}
=17
{8.g
16a
8dd
8b
=18
8.a
16g
8ee
8gg
=19
[2dd
=20
2dd]}
==
!!!AGN: Xiaodiao. Guniang yaopeisong
!!!AMT: simple duple
!!!AIN: vox
!!!EED: Helmut Schaffrath
!!!EEV: 1.0
*-
!!!ONB: Tied note syntax fixed by Craig Sapp, 2004/05/03/
